public/sourcegraph/sourcegraph-4.0-white.svg

<svg width="280" height="39" viewBox="0 0 280 39" fill="none" xmlns="http://www.w3.org/2000/svg">
<path d="M22.6942 38.3056C20.5635 38.6762 18.5089 37.3421 18.1284 35.2669L12.3451 4.50869C11.9646 2.43343 13.3344 0.432299 15.4651 0.0617189C17.5958 -0.308862 19.6504 1.02523 20.0309 3.10048L25.8142 33.8587C26.1947 35.9339 24.7488 37.935 22.6942 38.3056Z" fill="#FF5543"/>
<path d="M7.55125 33.0433C6.18151 33.2656 4.81178 32.8209 3.82252 31.7833C2.45278 30.1528 2.60498 27.781 4.2791 26.447L28.7061 6.21325C30.3802 4.87916 32.8153 5.0274 34.185 6.65795C35.5548 8.28851 35.4026 10.6602 33.7285 11.9943L9.37757 32.228C8.84489 32.6727 8.16002 32.9692 7.55125 33.0433Z" fill="#A112FF"/>
<path d="M34.8699 28.1517C34.185 28.2999 33.5001 28.2258 32.8914 28.0035L2.60496 17.5531C0.550357 16.8119 -0.514994 14.6626 0.245971 12.6614C1.00694 10.6603 3.21373 9.62268 5.26834 10.3638L35.4787 20.8142C37.5333 21.5554 38.5986 23.7047 37.8377 25.7059C37.3811 27.04 36.1635 27.9294 34.8699 28.1517Z" fill="#00CBEC"/>
<path d="M57.453 24.5716C57.453 23.8299 57.1598 23.2365 56.6467 22.7915C56.1335 22.3464 55.4738 21.9014 54.6675 21.5306C53.8611 21.1597 52.9815 20.7889 52.0285 20.3438C51.0756 19.973 50.1959 19.4538 49.3896 18.8604C48.5832 18.267 47.9235 17.5253 47.4104 16.6353C46.8972 15.7452 46.604 14.6327 46.604 13.2976C46.604 12.1108 46.8239 11.0724 47.1904 10.2566C47.557 9.3665 48.1434 8.69896 48.8764 8.10559C49.6095 7.51222 50.4158 7.14137 51.4421 6.84468C52.395 6.548 53.4946 6.39966 54.7408 6.39966C56.1335 6.39966 57.453 6.548 58.6259 6.77051C59.7987 6.99303 60.8983 7.36388 61.6313 7.80891L60.1653 11.74C59.6521 11.4433 58.9191 11.1466 57.8928 10.9241C56.8666 10.6274 55.8403 10.5532 54.6675 10.5532C53.5679 10.5532 52.7616 10.7758 52.1751 11.2208C51.5887 11.6658 51.2955 12.2592 51.2955 13.0009C51.2955 13.6684 51.5887 14.2618 52.1018 14.7068C52.6149 15.1518 53.2747 15.5969 54.081 15.9677C54.8874 16.3386 55.767 16.7836 56.72 17.1545C57.6729 17.5995 58.5526 18.0445 59.3589 18.6379C60.1653 19.2313 60.825 19.973 61.3381 20.7889C61.8513 21.6789 62.1445 22.7173 62.1445 23.9782C62.1445 25.2391 61.9246 26.3517 61.4847 27.3159C61.0449 28.2801 60.4585 29.0218 59.7254 29.6152C58.9924 30.2086 58.0394 30.7278 56.9399 31.0245C55.8403 31.3211 54.6675 31.4695 53.348 31.4695C51.662 31.4695 50.1226 31.3212 48.8764 30.9503C47.557 30.6536 46.604 30.2828 46.0176 29.9861L47.4837 25.9808C47.7036 26.1292 48.0701 26.2775 48.4366 26.4259C48.8031 26.5742 49.3163 26.7225 49.7561 26.8709C50.2692 27.0192 50.7823 27.0934 51.3688 27.2417C51.9552 27.3159 52.4683 27.3901 53.0548 27.3901C54.4475 27.3901 55.4738 27.1676 56.2068 26.6484C57.0865 26.2033 57.453 25.5358 57.453 24.5716Z" fill="white"/>
<path d="M64.1235 22.4207C64.1235 19.528 64.8566 17.2287 66.2494 15.6711C67.6421 14.1135 69.6213 13.2976 72.187 13.2976C73.5798 13.2976 74.7526 13.5201 75.7056 13.9651C76.7318 14.4102 77.5382 15.0035 78.1979 15.8194C78.8577 16.6353 79.3708 17.5995 79.664 18.7121C79.9572 19.8247 80.1771 21.0856 80.1771 22.4207C80.1771 25.3133 79.4441 27.6126 78.0513 29.1702C76.6585 30.7278 74.6793 31.5437 72.1137 31.5437C70.7209 31.5437 69.548 31.3212 68.5951 30.8762C67.5688 30.4311 66.7625 29.8378 66.1027 29.0219C65.443 28.206 64.9299 27.2418 64.6367 26.1292C64.2701 25.0166 64.1235 23.7557 64.1235 22.4207ZM68.6684 22.4207C68.6684 23.1624 68.7417 23.9041 68.8883 24.4974C69.0349 25.165 69.2548 25.6842 69.4747 26.2034C69.768 26.7226 70.1345 27.0934 70.5743 27.3159C71.0141 27.6126 71.5272 27.6868 72.187 27.6868C73.3598 27.6868 74.2395 27.2418 74.7526 26.4259C75.3391 25.61 75.6323 24.2008 75.6323 22.4207C75.6323 20.8631 75.3391 19.528 74.8259 18.5638C74.3128 17.5995 73.4332 17.0803 72.187 17.0803C71.0874 17.0803 70.2078 17.5254 69.6213 18.3412C68.9616 19.1571 68.6684 20.4922 68.6684 22.4207Z" fill="white"/>
<path d="M86.848 13.8167V23.6072C86.848 25.0165 86.9946 26.0549 87.3611 26.6483C87.6544 27.2416 88.3141 27.6125 89.267 27.6125C90.0734 27.6125 90.8064 27.39 91.3929 26.8708C91.9793 26.3516 92.3458 25.7582 92.639 25.0165V13.8908H97.0373V25.9065C97.0373 26.8708 97.1106 27.7608 97.1839 28.6509C97.2572 29.5409 97.4038 30.3568 97.6237 31.0985H94.2517L93.4454 28.5767H93.2988C92.7856 29.4668 92.0526 30.2085 91.0996 30.7277C90.1467 31.321 89.0471 31.6177 87.801 31.6177C86.9213 31.6177 86.1883 31.4694 85.4552 31.2469C84.7955 31.0243 84.2091 30.6535 83.7692 30.1343C83.3294 29.6151 82.9629 28.8734 82.743 27.9833C82.5231 27.0933 82.3765 25.9065 82.3765 24.4973V13.8167H86.848Z" fill="white"/>
<path d="M109.865 17.9702C109.132 17.7477 108.546 17.5994 107.959 17.5994C107.153 17.5994 106.493 17.8219 105.98 18.2669C105.467 18.712 105.101 19.2311 104.881 19.8987V31.0244H100.482V13.8167H103.928L104.441 16.116H104.587C104.954 15.3001 105.467 14.6325 106.127 14.1133C106.787 13.5941 107.593 13.4458 108.473 13.4458C109.059 13.4458 110.305 13.7425 110.965 14.0392L109.865 17.9702Z" fill="white"/>
<path d="M124.233 29.9861C123.573 30.5053 122.694 30.8762 121.741 31.1728C120.788 31.4695 119.761 31.5437 118.735 31.5437C117.342 31.5437 116.243 31.3212 115.29 30.8762C114.337 30.4311 113.604 29.8378 113.017 29.0219C112.431 28.206 111.991 27.2418 111.771 26.1292C111.478 25.0166 111.405 23.7557 111.405 22.4207C111.405 19.528 112.065 17.2287 113.384 15.6711C114.703 14.1135 116.536 13.2976 119.028 13.2976C120.275 13.2976 121.301 13.3718 122.034 13.5943C122.767 13.8168 123.5 14.0393 124.086 14.4102L123.06 18.0446C122.547 17.822 122.034 17.5995 121.521 17.4512C121.008 17.3028 120.421 17.2287 119.761 17.2287C118.515 17.2287 117.636 17.6737 116.976 18.4896C116.316 19.3055 116.023 20.6405 116.023 22.4207C116.023 23.1624 116.096 23.8299 116.243 24.4233C116.389 25.0166 116.609 25.61 116.976 26.055C117.269 26.5001 117.709 26.8709 118.222 27.1676C118.735 27.4643 119.322 27.5385 119.981 27.5385C120.714 27.5385 121.374 27.4643 121.887 27.2418C122.4 27.0193 122.84 26.7968 123.28 26.5001L124.233 29.9861Z" fill="white"/>
<path d="M139.847 29.5411C139.187 30.0603 138.234 30.5795 137.061 30.9503C135.888 31.3212 134.642 31.5437 133.323 31.5437C130.537 31.5437 128.558 30.7278 127.312 29.0961C126.066 27.4643 125.406 25.2392 125.406 22.4207C125.406 19.3796 126.139 17.0803 127.532 15.5969C128.924 14.1135 130.977 13.2976 133.543 13.2976C134.422 13.2976 135.229 13.4459 136.035 13.6685C136.841 13.891 137.574 14.2618 138.234 14.781C138.894 15.3002 139.407 16.0419 139.773 16.932C140.14 17.822 140.36 18.9346 140.36 20.2697C140.36 20.7889 140.36 21.2339 140.286 21.8273C140.213 22.3465 140.14 22.9399 140.067 23.5332H129.804C129.877 25.0166 130.244 26.055 130.904 26.7967C131.563 27.5385 132.663 27.9093 134.129 27.9093C135.082 27.9093 135.888 27.761 136.621 27.4643C137.354 27.1676 137.941 26.8709 138.307 26.5742L139.847 29.5411ZM133.469 16.8578C132.296 16.8578 131.417 17.2287 130.904 17.8962C130.317 18.5638 130.024 19.528 129.877 20.7147H136.181C136.255 19.4538 136.108 18.4896 135.595 17.822C135.229 17.2287 134.495 16.8578 133.469 16.8578Z" fill="white"/>
<path d="M157.587 31.0244C157.587 33.5462 156.927 35.4004 155.607 36.5872C154.288 37.7739 152.382 38.3673 149.963 38.3673C148.35 38.3673 147.031 38.219 146.078 37.9964C145.125 37.7739 144.392 37.5514 143.952 37.2547L144.905 33.6945C145.418 33.917 146.005 34.1395 146.738 34.2879C147.471 34.4362 148.277 34.5846 149.303 34.5846C150.843 34.5846 151.869 34.2137 152.455 33.5462C153.042 32.8786 153.262 31.9144 153.262 30.7277V29.6893H153.115C152.309 30.8018 150.916 31.321 148.863 31.321C146.664 31.321 145.052 30.6535 143.952 29.2442C142.852 27.835 142.339 25.684 142.339 22.7914C142.339 19.6762 143.072 17.3769 144.538 15.8193C146.005 14.2617 148.13 13.4458 150.843 13.4458C152.309 13.4458 153.628 13.52 154.728 13.7425C155.827 13.965 156.78 14.1875 157.513 14.4842V31.0244H157.587ZM150.11 27.6867C150.989 27.6867 151.649 27.4641 152.089 27.0933C152.529 26.7224 152.895 26.1291 153.188 25.3132V17.5994C152.455 17.3027 151.576 17.1544 150.549 17.1544C149.377 17.1544 148.497 17.5994 147.91 18.4153C147.251 19.3053 146.958 20.6404 146.958 22.5688C146.958 24.2748 147.251 25.5357 147.764 26.4257C148.277 27.3158 149.083 27.6867 150.11 27.6867Z" fill="white"/>
<path d="M170.415 17.9702C169.682 17.7477 169.095 17.5994 168.509 17.5994C167.702 17.5994 167.043 17.8219 166.53 18.2669C166.016 18.712 165.65 19.2311 165.43 19.8987V31.0244H161.032V13.8167H164.477L164.99 16.116H165.137C165.503 15.3001 166.016 14.6325 166.676 14.1133C167.336 13.5941 168.142 13.4458 169.022 13.4458C169.608 13.4458 170.268 13.5941 171.001 13.8167L170.415 17.9702Z" fill="white"/>
<path d="M172.54 14.6325C173.42 14.1875 174.08 14.0392 175.326 13.8167C176.572 13.5941 177.891 13.4458 179.211 13.4458C180.384 13.4458 181.41 13.5941 182.143 13.8908C182.876 14.1875 183.536 14.5584 184.049 15.1517C184.489 15.6709 184.855 16.3385 185.002 17.0802C185.222 17.8219 185.295 18.6378 185.295 19.5278C185.295 20.5662 185.295 21.5305 185.222 22.5688C185.149 23.6072 185.149 24.5715 185.075 25.6099C185.075 26.5741 185.075 27.5383 185.149 28.5025C185.222 29.4668 185.368 30.2826 185.662 31.1727H182.07L181.337 28.7992C180.897 29.5409 180.237 30.1343 179.431 30.6535C178.624 31.1727 177.598 31.3952 176.279 31.3952C175.472 31.3952 174.739 31.2469 174.153 31.0244C173.493 30.8018 172.98 30.431 172.54 29.986C172.1 29.5409 171.734 29.0217 171.514 28.4284C171.294 27.835 171.147 27.1675 171.147 26.3516C171.147 25.3132 171.367 24.4231 171.881 23.6814C172.394 22.9397 172.98 22.3463 173.86 21.9013C174.739 21.4563 175.766 21.1596 177.012 20.9371C178.258 20.7146 179.577 20.7146 181.117 20.7887C181.263 19.5278 181.19 18.5636 180.824 18.0444C180.457 17.451 179.724 17.2285 178.551 17.2285C177.672 17.2285 176.719 17.3027 175.766 17.5252C174.813 17.7477 174.373 17.8219 173.786 18.1186L172.54 14.6325ZM177.745 27.6125C178.624 27.6125 179.358 27.39 179.871 27.0191C180.384 26.6483 180.75 26.2032 181.044 25.7582V23.5331C180.31 23.4589 179.651 23.4589 178.991 23.5331C178.331 23.6072 177.745 23.6814 177.305 23.8298C176.865 23.9781 176.425 24.2006 176.132 24.4973C175.839 24.794 175.692 25.1648 175.692 25.6099C175.692 26.2774 175.912 26.7224 176.279 27.0933C176.572 27.4641 177.085 27.6125 177.745 27.6125Z" fill="white"/>
<path d="M188.741 13.8169H191.966L192.479 15.8936H192.626C193.212 15.0036 193.945 14.4102 194.752 13.9652C195.558 13.5202 196.511 13.3718 197.684 13.3718C199.81 13.3718 201.422 14.0394 202.522 15.4486C203.621 16.8579 204.135 19.0088 204.135 22.0498C204.135 23.5333 203.988 24.8683 203.621 26.0551C203.255 27.2418 202.742 28.2802 202.082 29.0961C201.422 29.912 200.616 30.5795 199.663 31.0245C198.71 31.4696 197.611 31.6921 196.364 31.6921C195.631 31.6921 195.045 31.6179 194.605 31.5437C194.165 31.4696 193.725 31.2471 193.212 31.0245V38.0708H188.814V13.8169H188.741ZM196.291 17.0804C195.411 17.0804 194.752 17.3029 194.239 17.7479C193.725 18.1929 193.359 18.8605 193.066 19.7505V26.9451C193.359 27.1677 193.725 27.3902 194.092 27.5385C194.458 27.6868 194.972 27.761 195.558 27.761C196.804 27.761 197.757 27.316 198.417 26.4259C199.077 25.5359 199.37 24.0525 199.37 21.9015C199.37 20.4181 199.15 19.2313 198.637 18.4155C198.197 17.5254 197.391 17.0804 196.291 17.0804Z" fill="white"/>
<path d="M216.963 31.0246V21.234C216.963 19.8247 216.743 18.7863 216.376 18.193C216.01 17.5996 215.277 17.2287 214.251 17.2287C213.518 17.2287 212.785 17.4512 212.198 17.9704C211.538 18.4896 211.172 19.1572 210.952 19.9731V30.9504H206.554V6.91895H210.952V15.7453H211.099C211.612 15.0036 212.345 14.4102 213.078 13.9652C213.884 13.5202 214.91 13.2977 216.083 13.2977C216.963 13.2977 217.696 13.446 218.356 13.6685C219.015 13.891 219.602 14.2619 220.042 14.7811C220.481 15.3003 220.848 16.042 220.995 16.932C221.141 17.8221 221.288 18.9347 221.288 20.2697V31.0246H216.963Z" fill="white"/>
<path d="M245.132 31.1916V26.2513H232.396V23.7124L243.157 7.17587H247.243V24.33H251.398V26.2513H247.243V31.1916H245.132ZM234.609 24.33H245.132V8.41097H244.723L234.609 23.9869V24.33Z" fill="#BFBFFF"/>
<path d="M256.68 31.672C256.113 31.672 255.647 31.489 255.284 31.123C254.921 30.7571 254.739 30.2882 254.739 29.7164C254.739 29.1446 254.921 28.6757 255.284 28.3098C255.647 27.9438 256.113 27.7608 256.68 27.7608C257.248 27.7608 257.713 27.9438 258.077 28.3098C258.44 28.6757 258.622 29.1446 258.622 29.7164C258.622 30.2882 258.44 30.7571 258.077 31.123C257.713 31.489 257.248 31.672 256.68 31.672Z" fill="#BFBFFF"/>
<path d="M271.316 31.672C268.637 31.672 266.514 30.86 264.948 29.2361C263.404 27.5893 262.632 25.1534 262.632 21.9284V16.4391C262.632 13.2141 263.404 10.7897 264.948 9.16575C266.514 7.51896 268.637 6.69556 271.316 6.69556C273.995 6.69556 276.106 7.51896 277.65 9.16575C279.217 10.7897 280 13.2141 280 16.4391V21.9284C280 25.1534 279.217 27.5893 277.65 29.2361C276.106 30.86 273.995 31.672 271.316 31.672ZM271.316 29.7507C273.496 29.7507 275.13 29.076 276.22 27.7265C277.332 26.3542 277.889 24.4672 277.889 22.0657V16.3019C277.889 13.9003 277.332 12.0248 276.22 10.6753C275.13 9.30298 273.496 8.61682 271.316 8.61682C269.137 8.61682 267.491 9.30298 266.378 10.6753C265.288 12.0248 264.744 13.9003 264.744 16.3019V22.0657C264.744 24.4672 265.288 26.3542 266.378 27.7265C267.491 29.076 269.137 29.7507 271.316 29.7507Z" fill="#BFBFFF"/>
</svg>

<svg width="280" height="39" fill="none" xmlns="http://www.w3.org/2000/svg"><path d="M22.694 38.306c-2.13.37-4.185-.964-4.566-3.04L12.345 4.51a3.81 3.81 0 0 1 3.12-4.447c2.13-.37 4.185.963 4.566 3.038l5.783 30.759c.38 2.075-1.065 4.076-3.12 4.447Z" fill="#FF5543"/><path d="M7.551 33.043a4.172 4.172 0 0 1-3.728-1.26c-1.37-1.63-1.218-4.002.456-5.336L28.706 6.213c1.674-1.334 4.11-1.186 5.479.445 1.37 1.63 1.218 4.002-.457 5.336L9.378 32.228c-.533.445-1.218.741-1.827.815Z" fill="#A112FF"/><path d="M34.87 28.152a3.567 3.567 0 0 1-1.979-.149L2.605 17.553c-2.055-.741-3.12-2.89-2.359-4.892a3.922 3.922 0 0 1 5.022-2.297l30.21 10.45c2.055.741 3.12 2.89 2.36 4.892-.457 1.334-1.675 2.223-2.968 2.446Z" fill="#00CBEC"/><path d="M57.453 24.572c0-.742-.293-1.335-.806-1.78a8.344 8.344 0 0 0-1.98-1.261c-.806-.371-1.686-.742-2.639-1.187-.952-.371-1.832-.89-2.638-1.484a7.18 7.18 0 0 1-1.98-2.225c-.513-.89-.806-2.002-.806-3.337 0-1.187.22-2.226.586-3.041.367-.89.953-1.558 1.686-2.151.733-.594 1.54-.965 2.566-1.261.953-.297 2.053-.445 3.299-.445 1.392 0 2.712.148 3.885.37 1.173.223 2.272.594 3.005 1.039l-1.466 3.931c-.513-.297-1.246-.593-2.272-.816-1.026-.297-2.053-.37-3.226-.37-1.1 0-1.905.222-2.492.667-.586.445-.88 1.038-.88 1.78 0 .667.294 1.26.807 1.706.513.445 1.173.89 1.979 1.26.806.372 1.686.817 2.639 1.187.953.445 1.833.89 2.639 1.484a7.84 7.84 0 0 1 1.98 2.15c.512.89.806 1.93.806 3.19 0 1.261-.22 2.374-.66 3.338-.44.964-1.026 1.706-1.76 2.3a7.616 7.616 0 0 1-2.785 1.409c-1.1.296-2.273.445-3.592.445-1.686 0-3.225-.149-4.472-.52-1.319-.296-2.272-.667-2.858-.964l1.466-4.005c.22.148.586.296.953.445.366.148.88.297 1.32.445.512.148 1.025.222 1.612.37.586.075 1.1.15 1.686.15 1.392 0 2.419-.223 3.152-.743.88-.445 1.246-1.112 1.246-2.076ZM64.124 22.42c0-2.892.733-5.191 2.125-6.749 1.393-1.557 3.372-2.373 5.938-2.373 1.393 0 2.566.222 3.519.667 1.026.445 1.832 1.039 2.492 1.854a7.685 7.685 0 0 1 1.466 2.893c.293 1.113.513 2.374.513 3.709 0 2.892-.733 5.192-2.126 6.75-1.392 1.557-3.372 2.373-5.937 2.373-1.393 0-2.566-.223-3.519-.668-1.026-.445-1.832-1.038-2.492-1.854a7.686 7.686 0 0 1-1.466-2.893c-.367-1.112-.513-2.373-.513-3.708Zm4.544 0c0 .742.074 1.484.22 2.077.147.668.367 1.187.587 1.706.293.52.66.89 1.1 1.113.44.297.952.37 1.612.37 1.173 0 2.053-.444 2.566-1.26.586-.816.88-2.225.88-4.005 0-1.558-.294-2.893-.807-3.857-.513-.965-1.393-1.484-2.639-1.484-1.1 0-1.98.445-2.566 1.261-.66.816-.953 2.151-.953 4.08ZM86.848 13.817v9.79c0 1.41.147 2.448.513 3.041.293.594.953.965 1.906.965.806 0 1.54-.223 2.126-.742.586-.52.953-1.113 1.246-1.854V13.89h4.398v12.016c0 .964.074 1.854.147 2.744.073.89.22 1.706.44 2.448h-3.372l-.807-2.522H93.3a5.615 5.615 0 0 1-2.2 2.15c-.952.594-2.052.89-3.298.89-.88 0-1.613-.148-2.346-.37-.66-.223-1.246-.593-1.686-1.113-.44-.519-.806-1.26-1.026-2.15-.22-.89-.367-2.078-.367-3.487v-10.68h4.472ZM109.865 17.97c-.733-.222-1.319-.37-1.906-.37-.806 0-1.466.222-1.979.667a3.581 3.581 0 0 0-1.099 1.632v11.125h-4.399V13.817h3.446l.513 2.299h.146a5.226 5.226 0 0 1 1.54-2.003c.66-.519 1.466-.667 2.346-.667.586 0 1.832.296 2.492.593l-1.1 3.931ZM124.233 29.986c-.66.52-1.539.89-2.492 1.187-.953.297-1.98.37-3.006.37-1.393 0-2.492-.222-3.445-.667-.953-.445-1.686-1.038-2.273-1.854a7.37 7.37 0 0 1-1.246-2.893c-.293-1.112-.366-2.373-.366-3.708 0-2.893.66-5.192 1.979-6.75 1.319-1.557 3.152-2.373 5.644-2.373 1.247 0 2.273.074 3.006.296.733.223 1.466.445 2.052.816l-1.026 3.635c-.513-.223-1.026-.446-1.539-.594-.513-.148-1.1-.222-1.76-.222-1.246 0-2.125.445-2.785 1.26-.66.816-.953 2.151-.953 3.932 0 .741.073 1.409.22 2.002.146.594.366 1.187.733 1.632.293.445.733.816 1.246 1.113.513.296 1.1.37 1.759.37.733 0 1.393-.074 1.906-.296a8.335 8.335 0 0 0 1.393-.742l.953 3.486ZM139.847 29.541c-.66.52-1.613 1.038-2.786 1.41-1.173.37-2.419.593-3.738.593-2.786 0-4.765-.816-6.011-2.448-1.246-1.632-1.906-3.857-1.906-6.675 0-3.041.733-5.34 2.126-6.824 1.392-1.483 3.445-2.3 6.011-2.3.879 0 1.686.149 2.492.371a6.184 6.184 0 0 1 2.199 1.113c.66.52 1.173 1.26 1.539 2.151.367.89.587 2.003.587 3.338 0 .519 0 .964-.074 1.557-.073.52-.146 1.113-.219 1.706h-10.263c.073 1.484.44 2.522 1.1 3.264.659.741 1.759 1.112 3.225 1.112.953 0 1.759-.148 2.492-.445.733-.296 1.32-.593 1.686-.89l1.54 2.967Zm-6.378-12.683c-1.173 0-2.052.37-2.565 1.038-.587.668-.88 1.632-1.027 2.819h6.304c.074-1.261-.073-2.225-.586-2.893-.366-.593-1.1-.964-2.126-.964ZM157.587 31.024c0 2.522-.66 4.376-1.98 5.563-1.319 1.187-3.225 1.78-5.644 1.78-1.613 0-2.932-.148-3.885-.37-.953-.223-1.686-.446-2.126-.742l.953-3.56c.513.222 1.1.444 1.833.593.733.148 1.539.297 2.565.297 1.54 0 2.566-.371 3.152-1.039.587-.667.807-1.632.807-2.818v-1.039h-.147c-.806 1.113-2.199 1.632-4.252 1.632-2.199 0-3.811-.668-4.911-2.077-1.1-1.409-1.613-3.56-1.613-6.453 0-3.115.733-5.414 2.199-6.972 1.467-1.557 3.592-2.373 6.305-2.373 1.466 0 2.785.074 3.885.296 1.099.223 2.052.445 2.785.742v16.54h.074Zm-7.477-3.337c.879 0 1.539-.223 1.979-.594.44-.37.806-.964 1.099-1.78V17.6c-.733-.296-1.612-.445-2.639-.445-1.172 0-2.052.445-2.639 1.261-.659.89-.952 2.225-.952 4.154 0 1.706.293 2.967.806 3.857.513.89 1.319 1.26 2.346 1.26ZM170.415 17.97c-.733-.222-1.32-.37-1.906-.37-.807 0-1.466.222-1.979.667-.514.445-.88.964-1.1 1.632v11.125h-4.398V13.817h3.445l.513 2.299h.147a5.214 5.214 0 0 1 1.539-2.003c.66-.519 1.466-.667 2.346-.667.586 0 1.246.148 1.979.37l-.586 4.154ZM172.54 14.633c.88-.445 1.54-.594 2.786-.816 1.246-.223 2.565-.371 3.885-.371 1.173 0 2.199.148 2.932.445.733.296 1.393.667 1.906 1.26.44.52.806 1.188.953 1.93.22.74.293 1.557.293 2.447 0 1.038 0 2.003-.073 3.04-.073 1.04-.073 2.003-.147 3.042 0 .964 0 1.928.074 2.893.073.964.219 1.78.513 2.67h-3.592l-.733-2.374c-.44.742-1.1 1.335-1.906 1.855-.807.519-1.833.741-3.152.741-.807 0-1.54-.148-2.126-.37-.66-.223-1.173-.594-1.613-1.039-.44-.445-.806-.964-1.026-1.558a5.83 5.83 0 0 1-.367-2.076c0-1.039.22-1.929.734-2.67.513-.742 1.099-1.336 1.979-1.78.879-.446 1.906-.742 3.152-.965 1.246-.222 2.565-.222 4.105-.148.146-1.261.073-2.225-.293-2.745-.367-.593-1.1-.816-2.273-.816-.879 0-1.832.075-2.785.297-.953.223-1.393.297-1.98.594l-1.246-3.486Zm5.205 12.98c.879 0 1.613-.223 2.126-.594.513-.37.879-.816 1.173-1.26v-2.226a9.488 9.488 0 0 0-2.053 0c-.66.074-1.246.148-1.686.297-.44.148-.88.37-1.173.667-.293.297-.44.668-.44 1.113 0 .667.22 1.112.587 1.483.293.371.806.52 1.466.52ZM188.741 13.817h3.225l.513 2.077h.147c.586-.89 1.319-1.484 2.126-1.929.806-.445 1.759-.593 2.932-.593 2.126 0 3.738.667 4.838 2.077 1.099 1.409 1.613 3.56 1.613 6.6 0 1.484-.147 2.82-.514 4.006-.366 1.187-.879 2.225-1.539 3.041-.66.816-1.466 1.483-2.419 1.928-.953.446-2.052.668-3.299.668-.733 0-1.319-.074-1.759-.148-.44-.074-.88-.297-1.393-.52v7.047h-4.398V13.817h-.073Zm7.55 3.263c-.88 0-1.539.223-2.052.668-.514.445-.88 1.112-1.173 2.002v7.195c.293.223.659.445 1.026.593.366.149.88.223 1.466.223 1.246 0 2.199-.445 2.859-1.335.66-.89.953-2.373.953-4.524 0-1.484-.22-2.67-.733-3.486-.44-.89-1.246-1.336-2.346-1.336ZM216.963 31.025v-9.791c0-1.41-.22-2.448-.587-3.041-.366-.593-1.099-.964-2.125-.964-.733 0-1.466.222-2.053.741-.66.52-1.026 1.187-1.246 2.003V30.95h-4.398V6.92h4.398v8.826h.147c.513-.741 1.246-1.335 1.979-1.78.806-.445 1.832-.667 3.005-.667.88 0 1.613.148 2.273.37.659.223 1.246.594 1.686 1.113.439.52.806 1.261.953 2.151.146.89.293 2.003.293 3.338v10.755h-4.325Z" fill="#fff"/><path d="M245.132 31.192v-4.94h-12.736v-2.54l10.761-16.536h4.086V24.33h4.155v1.921h-4.155v4.94h-2.111Zm-10.523-6.862h10.523V8.411h-.409l-10.114 15.576v.343ZM256.68 31.672c-.567 0-1.033-.183-1.396-.549-.363-.366-.545-.835-.545-1.407 0-.571.182-1.04.545-1.406.363-.366.829-.55 1.396-.55.568 0 1.033.184 1.397.55.363.366.545.835.545 1.406 0 .572-.182 1.041-.545 1.407-.364.366-.829.549-1.397.549ZM271.316 31.672c-2.679 0-4.802-.812-6.368-2.436-1.544-1.647-2.316-4.083-2.316-7.308V16.44c0-3.225.772-5.65 2.316-7.273 1.566-1.647 3.689-2.47 6.368-2.47 2.679 0 4.79.823 6.334 2.47 1.567 1.624 2.35 4.048 2.35 7.273v5.49c0 3.224-.783 5.66-2.35 7.307-1.544 1.624-3.655 2.436-6.334 2.436Zm0-1.921c2.18 0 3.814-.675 4.904-2.024 1.112-1.373 1.669-3.26 1.669-5.661v-5.764c0-2.402-.557-4.277-1.669-5.627-1.09-1.372-2.724-2.058-4.904-2.058-2.179 0-3.825.686-4.938 2.058-1.09 1.35-1.634 3.225-1.634 5.627v5.764c0 2.401.544 4.288 1.634 5.66 1.113 1.35 2.759 2.025 4.938 2.025Z" fill="#BFBFFF"/></svg>
